img/icons/mobilephone.svg

<?xml version="1.0" ?><svg style="enable-background:new 0 0 50 50;" version="1.1" viewBox="0 0 50 50" xml:space="preserve" xmlns="http://www.w3.org/2000/svg" xmlns:xlink="http://www.w3.org/1999/xlink"><g id="Layer_1"><path d="M9,6v38c0,2.757,2.243,5,5,5h22c2.757,0,5-2.243,5-5V6c0-2.757-2.243-5-5-5H14C11.243,1,9,3.243,9,6z M11,10h28v30H11V10z    M36,47H14c-1.654,0-3-1.346-3-3v-2h28v2C39,45.654,37.654,47,36,47z M14,3h22c1.654,0,3,1.346,3,3v2H11V6C11,4.346,12.346,3,14,3z   "/><rect height="2" transform="matrix(0.7071 -0.7071 0.7071 0.7071 -12.3198 21.2574)" width="9.899" x="14.55" y="24.5"/><rect height="2" transform="matrix(0.7071 -0.7071 0.7071 0.7071 -11.1838 27)" width="19.799" x="17.101" y="26"/><rect height="2" transform="matrix(0.7071 -0.7071 0.7071 0.7071 -4.8198 24.364)" width="5.657" x="24.172" y="17"/></g><g/></svg>

<svg id="Layer_1" xmlns="http://www.w3.org/2000/svg" width="32" height="48" viewBox="0 0 32 48">
  <path id="Path_43" data-name="Path 43" d="M9,6V44a5.006,5.006,0,0,0,5,5H36a5.006,5.006,0,0,0,5-5V6a5.006,5.006,0,0,0-5-5H14A5.006,5.006,0,0,0,9,6Zm2,4H39V40H11ZM36,47H14a3,3,0,0,1-3-3V42H39v2A3,3,0,0,1,36,47ZM14,3H36a3,3,0,0,1,3,3V8H11V6A3,3,0,0,1,14,3Z" transform="translate(-9 -1)" fill="#846227"/>
  <rect id="Rectangle_13" data-name="Rectangle 13" width="9.899" height="2" transform="translate(6.292 27.293) rotate(-45)" fill="#846227"/>
  <rect id="Rectangle_14" data-name="Rectangle 14" width="19.799" height="2" transform="translate(10.293 32.292) rotate(-45)" fill="#846227"/>
  <rect id="Rectangle_15" data-name="Rectangle 15" width="5.657" height="2" transform="translate(15.293 18.293) rotate(-45)" fill="#846227"/>
</svg>
